X:1
T:Castlerock Road
R:reel
M:4/4
L:1/8
K:D
|:~A2AG FAdf|edce ~d2ef|gBdg fedf|~e2ef edBd|
|BAGA FAdf|edce ~d2ef|gBdg fedf|1 edce ~d2dB:|2 edce ~d2ef|]
|:gBdg fedf|~e2ef edBd|gBdg feAd-|dcAG FDDF|
|GBdg fedf|~e2ef edBd|ABde fgaf|1 edef ~d2ef:|2 edef ~d2de|]
|:faaf aafa|eaae aaea|dbbd bbdb|caac aaca|
|ABBA Bcde|~f2ff edBd|ABde fgaf|1 edef ~d2de:|2 edef ~d2dB|]